X: 27485
T: Molly Put The Kettle On
R: reel
M: 4/4
K: Aminor
|:cded cAAc|B3 d BGGB|cded cAAG|EDEG A3 B|
cded cAAc|B3 d BGGB|cABG AGED|EDEG A3 B:|
|:cdef f g3|aged cAAB|cdef fged|eaag a3 g|
(3Bcd ef f g3|aged cAAB|cded cAAG|EDEG A3 B:|

